X: 106
T: My Life Is Such
C: Teton Sioux band 1911-1914
N: Derived from sioux106.krn
O: South Dakota, U.S.A.
N: Teton Sioux Music by Frances Densmore, 1918
Z: transcribed to **kern format by Craig Sapp
L: 1/8
M: 2/4
Q: 1/4=58
K: C clef=bass
%%linebreak <none>
G2G G [I:setbarnb 2]| 
G2G2 | 
E2E D | 
C4 ]|:  
E2^D D | 
E2^D2 | 
C2(C A,) ||  
[M:3/4]G, G, G, E,E,2 ||  
[M:2/4]C< C C C | 
D2(D/ C3/) | 
A, G, A, G, | 
G, E,E,2 :|]  



